lib/flags/ve-venezuela.svg

<svg xmlns="http://www.w3.org/2000/svg" fill="none" aria-hidden="true" viewBox="0 0 42 30"><g id="Country=VE - Venezuela, Size=sm (36x24)" filter="url(#filter0_dd_91_24097)"><g clip-path="url(#clip0_91_24097)"><g id="flag"><mask id="mask0_91_24097" width="36" height="24" x="3" y="2" maskUnits="userSpaceOnUse" style="mask-type:alpha"><rect id="mask" width="36" height="24" x="3" y="2" fill="white"/></mask><g mask="url(#mask0_91_24097)"><g id="contents"><path id="background" fill="#2E42A5" fill-rule="evenodd" d="M3 2V26H39V2H3Z" clip-rule="evenodd"/><mask id="mask1_91_24097" width="36" height="24" x="3" y="2" maskUnits="userSpaceOnUse" style="mask-type:alpha"><path id="background_2" fill="white" fill-rule="evenodd" d="M3 2V26H39V2H3Z" clip-rule="evenodd"/></mask><g mask="url(#mask1_91_24097)"><path id="top" fill="#FECA00" fill-rule="evenodd" d="M3 2V10H39V2H3Z" clip-rule="evenodd"/><path id="bottom" fill="#E31D1C" fill-rule="evenodd" d="M3 18V26H39V18H3Z" clip-rule="evenodd"/><g id="mark"><path id="Combined Shape" fill="#F7FCFF" fill-rule="evenodd" d="M17.3291 13.8591L18.4346 13.3016L19.675 13.8591L19.2296 12.7261L20.1561 11.8935H18.9769L18.4329 10.8213L17.969 11.8935H16.5858L17.6259 12.7112H16.4594L15.9154 11.639L15.4515 12.7112H14.0683L15.1273 13.5438L14.9249 14.2701H14.0423L13.4983 13.1979L13.0344 14.2701H11.6512L12.7102 15.1027L12.5143 15.8056H12.1279L11.5839 14.7334L11.12 15.8056H9.73682L10.7958 16.6381L10.4801 17.7712L11.5856 17.2137L12.826 17.7712L12.3806 16.6381L13.3071 15.8056H13.2475L13.5 15.6783L14.7404 16.2357L14.2949 15.1027L14.8258 14.6256L14.8116 14.6768L15.9171 14.1193L17.1575 14.6768L16.7121 13.5438L17.6326 12.7165L17.6448 12.7261L17.3291 13.8591Z" clip-rule="evenodd"/><path id="Combined Shape_2" fill="#F7FCFF" fill-rule="evenodd" d="M24.6259 13.8152L23.5203 13.2577L22.2799 13.8152L22.7254 12.6821L21.7989 11.8495H22.978L23.522 10.7773L23.9859 11.8495H25.3691L24.3291 12.6672H25.501L26.045 11.595L26.5089 12.6672H27.8921L26.8331 13.4998L27.0356 14.2262H27.9182L28.4621 13.154L28.9261 14.2262H30.3093L29.2503 15.0588L29.4461 15.7616H29.8325L30.3765 14.6894L30.8404 15.7616H32.2236L31.1646 16.5942L31.4804 17.7272L30.3748 17.1697L29.1344 17.7272L29.5799 16.5942L28.6534 15.7616H28.7129L28.4605 15.6343L27.22 16.1918L27.6655 15.0588L27.1346 14.5817L27.1489 14.6328L26.0434 14.0754L24.8029 14.6328L25.2484 13.4998L24.3253 12.6702L24.3101 12.6821L24.6259 13.8152Z" clip-rule="evenodd"/><path id="Star 21" fill="#F7FCFF" fill-rule="evenodd" d="M20.8122 12.5345L19.7066 13.092L20.0224 11.959L18.9634 11.1264H20.3466L20.8105 10.0542L21.3545 11.1264H22.5336L21.6071 11.959L22.0526 13.092L20.8122 12.5345Z" clip-rule="evenodd"/></g></g></g></g></g></g></g><defs><filter id="filter0_dd_91_24097" width="42" height="30" x="0" y="0" color-interpolation-filters="sRGB" filterUnits="userSpaceOnUse"><feFlood flood-opacity="0" result="BackgroundImageFix"/><feColorMatrix in="SourceAlpha" result="hardAlpha" values="0 0 0 0 0 0 0 0 0 0 0 0 0 0 0 0 0 0 127 0"/><feOffset dy="1"/><feGaussianBlur stdDeviation="1"/><feColorMatrix values="0 0 0 0 0.0627451 0 0 0 0 0.0941176 0 0 0 0 0.156863 0 0 0 0.06 0"/><feBlend in2="BackgroundImageFix" result="effect1_dropShadow_91_24097"/><feColorMatrix in="SourceAlpha" result="hardAlpha" values="0 0 0 0 0 0 0 0 0 0 0 0 0 0 0 0 0 0 127 0"/><feOffset dy="1"/><feGaussianBlur stdDeviation="1.5"/><feColorMatrix values="0 0 0 0 0.0627451 0 0 0 0 0.0941176 0 0 0 0 0.156863 0 0 0 0.1 0"/><feBlend in2="effect1_dropShadow_91_24097" result="effect2_dropShadow_91_24097"/><feBlend in="SourceGraphic" in2="effect2_dropShadow_91_24097" result="shape"/></filter><clipPath id="clip0_91_24097"><rect width="36" height="24" x="3" y="2" fill="white" rx="2"/></clipPath></defs></svg>

<svg xmlns="http://www.w3.org/2000/svg" fill="none" aria-hidden="true" viewBox="0 0 42 30"><g filter="url(#a)"><g clip-path="url(#b)"><mask id="c" width="36" height="24" x="3" y="2" maskUnits="userSpaceOnUse" style="mask-type:alpha"><path fill="#fff" d="M3 2h36v24H3z"/></mask><g mask="url(#c)"><path fill="#2E42A5" fill-rule="evenodd" d="M3 2v24h36V2H3Z" clip-rule="evenodd"/><mask id="d" width="36" height="24" x="3" y="2" maskUnits="userSpaceOnUse" style="mask-type:alpha"><path fill="#fff" fill-rule="evenodd" d="M3 2v24h36V2H3Z" clip-rule="evenodd"/></mask><g fill-rule="evenodd" clip-rule="evenodd" mask="url(#d)"><path fill="#FECA00" d="M3 2v8h36V2H3Z"/><path fill="#E31D1C" d="M3 18v8h36v-8H3Z"/><g fill="#F7FCFF"><path d="m17.33 13.86 1.105-.558 1.24.557-.445-1.133.926-.833h-1.18l-.543-1.072-.464 1.072h-1.383l1.04.818h-1.167l-.544-1.072-.463 1.072h-1.384l1.06.833-.203.726h-.883l-.544-1.072-.464 1.072h-1.383l1.06.833-.197.703h-.386l-.544-1.073-.464 1.073H9.737l1.059.832-.316 1.133 1.106-.557 1.24.557-.445-1.133.926-.832h-.06l.253-.128 1.24.558-.445-1.133.53-.477-.013.05 1.105-.557 1.24.558-.445-1.133.92-.828.013.01-.316 1.133Zm7.296-.045-1.106-.557-1.24.557.445-1.133-.926-.832h1.179l.544-1.073.464 1.073h1.383l-1.04.817h1.172l.544-1.072.464 1.072h1.383l-1.059.833.203.726h.882l.544-1.072.464 1.072h1.383l-1.059.833.196.703h.386l.544-1.073.464 1.073h1.384l-1.06.832.316 1.133-1.105-.557-1.24.557.445-1.133-.927-.832h.06l-.253-.128-1.24.558.446-1.133-.531-.477.014.05-1.106-.557-1.24.558.445-1.133-.923-.83-.015.012.316 1.133Z"/><path d="m20.812 12.534-1.105.558.315-1.133-1.059-.833h1.384l.463-1.072.545 1.072h1.179l-.927.833.446 1.133-1.24-.558Z"/></g></g></g></g></g><defs><clipPath id="b"><rect width="36" height="24" x="3" y="2" fill="#fff" rx="2"/></clipPath><filter id="a" width="42" height="30" x="0" y="0" color-interpolation-filters="sRGB" filterUnits="userSpaceOnUse"><feFlood flood-opacity="0" result="BackgroundImageFix"/><feColorMatrix in="SourceAlpha" result="hardAlpha" values="0 0 0 0 0 0 0 0 0 0 0 0 0 0 0 0 0 0 127 0"/><feOffset dy="1"/><feGaussianBlur stdDeviation="1"/><feColorMatrix values="0 0 0 0 0.0627451 0 0 0 0 0.0941176 0 0 0 0 0.156863 0 0 0 0.06 0"/><feBlend in2="BackgroundImageFix" result="effect1_dropShadow_91_24097"/><feColorMatrix in="SourceAlpha" result="hardAlpha" values="0 0 0 0 0 0 0 0 0 0 0 0 0 0 0 0 0 0 127 0"/><feOffset dy="1"/><feGaussianBlur stdDeviation="1.5"/><feColorMatrix values="0 0 0 0 0.0627451 0 0 0 0 0.0941176 0 0 0 0 0.156863 0 0 0 0.1 0"/><feBlend in2="effect1_dropShadow_91_24097" result="effect2_dropShadow_91_24097"/><feBlend in="SourceGraphic" in2="effect2_dropShadow_91_24097" result="shape"/></filter></defs></svg>
